!!!!SEGMENT: pl-kozmzk--mzk-m-159--046_walczynski-franciszek--praeludia-organi-op-5-largo.krn
!!!id: 18xx:2789
!!!COM: Walczyński, Franciszek
!!!COM-rism: pe30021989
!!!CDT: ~1852-1937
!!!CNT: Polish
!!!OTL: Praeludia organi op. 5 – Largo
!!!PDT: 1894
!!!SMS-siglum: PL-KOZmzk
!!!SMS-shelfmark: mzk/m/159
!!!NIFC-rismID: 1001118861
!!!URL-scan: https://repozytorium.nifc.pl/islandora/object/pl-kozmzk%3A2265/datastream/PDF/view
!!!ONB-nifc: UWAGA: numeracja plików zgodna z numeracją źrodłową
!!!SMS-variant:
!!!SMS-altvar:
!!!OMD:46. Largo.
**kern	**kern	**dynam
*part2	*part1	*part1
*staff2	*staff1	*
*I"[Organo]	*	*
*clefF4	*clefG2	*
*k[b-e-a-]	*k[b-e-a-]	*
*M2/4	*M2/4	*
=1	=1	=1
*^	*^	*
!	!	!	!	!LO:DY:b=2
2rd	(4C\	2rg	2r	p <
.	4E-\	.	.	.
=2	=2	=2	=2	=2
2rd	4D\	2rg	2r	[
.	4A-\	.	.	.
=3	=3	=3	=3	=3
2r	8G\L	2rg	2r	>
.	8F\	.	.	.
.	8E-\	.	.	.
.	8D\J)	.	.	]
=4	=4	=4	=4	=4
(4c/	(2C\	2rg	2r	p
4e-/	.	.	.	.
=5	=5	=5	=5	=5
4d/	2BBn\	2rg	2r	.
4a-/	.	.	.	.
=6	=6	=6	=6	=6
8g/L	4GG\	2rg	2r	.
8f/	.	.	.	.
8e-/	8AAn\L	.	.	.
8d/J)	8BBn\J)	.	.	.
=7	=7	=7	=7	=7
(8e-/L	(8C\L	2rg	2r	.
8d/J	8D\J	.	.	.
4c/	4E-\	.	.	.
=8	=8	=8	=8	=8
!	!	!	!	!LO:HP:b=2
2Bn/)	4A-\	2rg	2r	>
.	8G\L	.	.	.
.	8F\J)	.	.	]
=9	=9	=9	=9	=9
(2G/	4E-\	2rdd	(4c\	p
.	(4C\	.	4e-\	.
=10	=10	=10	=10	=10
4A-/	2F\	2rdd	4d\	.
4Bn/)	.	.	4a-\	.
!!LO:LB:g=original
=11	=11	=11	=11	=11
8c/L	8E-\L	2r	8g\L	.
8Bn/	8D\	.	8f\	.
8.c/	8C\	.	8e-\	.
.	8G\J)	.	8d\J)	.
16B/Jk	.	.	.	.
=12	=12	=12	=12	=12
[2c/	(4E-\	(4cc/	[2g\	fp
.	4C\	4ee-/	.	.
=13	=13	=13	=13	=13
2c/]	2F\	4dd/	2g\]	.
.	.	4aa-/	.	.
=14	=14	=14	=14	=14
8Bn/L	8G\L	8gg/L	4.g\	.
8d/J	8BBn\J	8ff/	.	.
4c/	8C\L	8ee-/	.	.
.	8F\J)	8dd/J)	8a-\	.
=15	=15	=15	=15	=15
(4e-/	(4G\	(4cc/	4.g\	>
4d/)	4GG\)	4bn/	.	.
.	.	.	8f\	.
=16	=16	=16	=16	=16
!LO:TX:b:i:t=Ped.	!	!	!	!
(4c/	([2C\	([2cc/)	4e-\	] p
4B-X/	.	.	4en\	<
=17	=17	=17	=17	=17
4A-/	2C\_	2cc/_	4f\	.
4F/)	.	.	4a-\	[[
=18	=18	=18	=18	=18
!	!	!LO:TX:a:i:t=rit.	!	!
(8E-/L	2C\_	2cc/_	8g\L	>
8D/	.	.	8f\	.
8G/	.	.	8e-\	.
8F/J	.	.	8d\J	.
=19	=19	=19	=19	=19
2E-/)	2C;\])	2cc;/])	2c\	] pp
*v	*v	*	*	*
*	*v	*v	*
==	==	==
*-	*-	*-
!!!system-decoration: {(s1,s2)}
!!!EED: Andrzej Borzym
!!!EST: 2021-08-08
!!!ENC: Krzysztof Stępień
!!!END: 2021-07-26
